X: 1
T: Trip to Skye
C:
%D:
R: jig
S: Fiddle Hell Online 2022-4-8 handout for Alasdair Frazer workshop
Z: 2022 John Chambers <jc:trillian.mit.edu>
M: 6/8
L: 1/8
K: A
"^A"[|] E |\
AGF ECE | Ace f2e | acc cBc | dFF F2E |\
AGF ECE | Ace f2e | acc cBc | cAA A2 :|
"^B"|: E |\
Ace Ace | Ace dcB | Ace fga | gee efg |\
a3  g3  | fgf ecA | dcd Bed | cAA A2 :|
